X: 4341
T: Colonel Byngs Favorite    a Strathspey
C: by Nath. Gow
%R: strathspey, air
B: Niel Gow & Sons "A Fourth Collection of Strathspey Reels, etc." v.4 p.34 #1
Z: 2022 John Chambers <jc:trillian.mit.edu>
M: C
L: 1/8
Q: "Slow"
K: D
% - - - - - - - - - -
% Voice 1 reformatted for 2 6-bar lines.
V: 1 staves=2
d |\
(d/c/)B/A/ {c}d>A FDDF | GE {E}e>d cAA{c}d |\
(d/c/).B/.A/ {c}d>A FDDF | G>E{E}A>F D3 :|\
G |\
(FD) A>D FD~D>F | (GE) B>E GE~E>G |
(FD) A>D FDD>F | {F}G>E {E}A>F D3G ||\
(FD) A>D FD~D>F | (GE)B>E GEE>G |\
F>DA>F B>GA>F | {F}G>E {E}A>F D3 |]
% - - - - - - - - - -
% Voice 2 preserves the staff layout in the book.
V: 2 clef=bass middle=d
z | d2f2 d2f2 | e3^g a2A2 | d2f2 d2B2 | G2A2 D3 :| z | d2d2 d2d2 | e2e2
e2e2 | d2d2 d2F2 | G2A2 D2D2 || d2d2 d2d2 | e2e2 e2e2 | d2f2 g2f2 | g2a2 d3 |]
%%begintext align
%% In Playing this tune the 2d Strain
%% is to be played 8 Notes higher alternately.
%%endtext


